X:1
T:What a Gospel!
T:What a Gospel!
T:James McGranahan
T:Maud Fraser, 1891
T:Public Domain Courtesy of the Cyber Hymnal™
T:Public Domain Courtesy of the Cyber Hymnal™
C:James McGranahan
Z:Public Domain
Z:Courtesy of the Cyber Hymnal™
%%score ( 1 2 ) ( 3 4 )
L:1/8
Q:1/4=102
M:4/4
K:Bb
V:1 treble 
V:2 treble 
V:3 bass 
V:4 bass 
V:1
 [DF]2 [DB]2 [EB]2 [EA] z | [EF]2 [Ec]2 [Ec]2 [DB] z | [DF][Fd][Ec][DB] [CA]2 [=EG]2 | F6 E2 | %4
w: 1.~It is fin- ished;|what a Gos- pel!|Noth- ing has been left to|do, But|
w: 2.~It is fin- ished;|what a Gos- pel!|Bring- ing news of vic- tory|won, Tell-|
w: 3.~It is fin- ished;|what a Gos- pel!|Here each wea- ry la- den|breast That|
w: 4.~It is fin- ished;|what a Gos- pel!|Je- sus died to save your|soul; Have|
 [DF]2 [FB]2 [FA]2 [EG]2 | [EG]2 [Ge]2 [Fd]2 [Fc]2 | [Ff][FB][Gc][Ge] [Fd]2 [Ec]2 | [DB]6 || %8
w: * to take with|grate- ful glad- ness|What the Sav- ior did for|you.|
w: * ing us of|peace and par- don|Thro’ the blood of God’s dear|Son.|
w: * ac- cepts God’s|gra- cious of- fer,|En- ters in- to per- fect|rest.|
w: * you tak- en|His sal- va- tion?|Have you let Him make you|whole?|
"^Refrain" FF | B<B [Fd]>[Fd] [Fd][Ec][DB][FA] | [EG]<[EG] [Ge]>[Ge] [Ge][Fd][=Ec][EB] | %11
w: |||
w: |||
w: It is|fin- ished, hal- le- lu- jah! It is|fin- ished, hal- le- lu- jah! Christ the|
w: |||
 [FA]2 [Fc]2 [=EG]2 [Ec]2 | F2 [Ge]>[Ge] [Fd]2 [Ec] z | [DB]2 [FB]2 [FA]2 [EG]2 | %14
w: |||
w: |||
w: work has ful- ly|done, Hal- le- lu- jah!|All who will may|
w: |||
 [Ge]2 [Ge]2 [Fd]2 [Fc]2 | [Ff][FB][Gc][Ge] [Fd]2 [Ec]2 | [DB]6 z2 |] %17
w: |||
w: |||
w: have their par- don|Through the blood of God’s own|Son.|
w: |||
V:2
 x8 | x8 | x8 | F2 C2 F2 x2 | x8 | x8 | x8 | x6 || FF | B<B x6 | x8 | x8 | F2 x6 | x8 | x8 | x8 | %16
 x8 |] %17
V:3
 [B,,B,]2 [B,,F,]2 [C,F,]2 [C,F,] z | [F,A,]2 [F,A,]2 [B,,B,]2 [B,,B,] z | %2
 [B,,B,][B,,B,][A,,F,][B,,F,] [C,F,]2 [C,B,]2 | (A,2 E2 D2 C2) | [B,,B,]2 [D,B,]2 [E,B,]2 [E,B,]2 | %5
 [C,C]2 [C,B,]2 [F,B,]2 B,2 | [D,B,][D,B,][E,B,][C,B,] [F,B,]2 (A,F,) | [B,,F,]6 || F,F, | %9
 B,<B, [B,,B,]>[B,,B,] [B,,B,][B,,F,] z2 | z2 [E,B,]>[E,B,] [C,C][C,G,][C,G,][C,C] | %11
 [F,C]2 [A,,C]2 [C,B,]2 [C,B,]2 | [F,A,]2 E>E D2 C z | B,2 [D,B,]2 [E,B,]2 [E,B,]2 | %14
 [C,C]2 [C,B,]2 [F,B,]2 A,2 | [D,B,][D,B,][E,B,][C,B,] [F,B,]2 (A,F,) | [B,,F,]6 z2 |] %17
V:4
 x8 | x8 | x8 | F,6 x2 | x8 | x6 (F,E,) | x6 F,2 | x6 || F,F, | B,<B, x6 | x8 | x8 | %12
 x2 E>E D2 C x | B,2 x6 | x6 (F,E,) | x6 F,2 | x8 |] %17

